assets/mouse.svg

<svg width="24" height="24" fill="none" xmlns="http://www.w3.org/2000/svg"><path fill-rule="evenodd" clip-rule="evenodd" d="M6 3h12v18H6V3Zm2 2v4h3V5H8Zm5 0v4h3V5h-3Zm3 6H8v8h8v-8Z" fill="#775ADA"/></svg>

<svg width="24" height="24" viewBox="0 0 24 24" fill="none" xmlns="http://www.w3.org/2000/svg">
<path fill-rule="evenodd" clip-rule="evenodd" d="M6 3H18V21H6V3ZM8 5V9H11V5H8ZM13 5V9H16V5H13ZM16 11H8V19H16V11Z" fill="#775ADA"/>
</svg>
